X:1
T:[ID 3-47]
T:[ID 3-47]
T:Bezeichnung standardisiert: Aria Aria 29.
T:Urheber unbekannt Datum in der hier transkribierten schriftlichen Quelle: 1767
C:Urheber unbekannt
C:Datum in der hier transkribierten schriftlichen Quelle: 1767
%%score 1 2
L:1/8
M:3/4
K:D
V:1 treble nm="Primo"
V:2 treble nm="Secondo"
V:1
 d2 fe d2 | e2 z2 z2 | gfgbag | f2 ef d2 | A>FA>F d2 | B>GB>G d2 | A>FA>F d2 | (gf)(fe)(ed) | %8
 d2 fe d2 | .e.f(gf).g.e | (3fed e4 | d2 z2 z2 :: AB =c2 c2 | =cBBA B2 | AB =c2 c2 | =cB B2 z2 | %16
 B^c d2 d2 | (dc)(cB) c2 | Bc d2 d2 | dc c2 z2 | (ea)(ag)(gf) | gffe Te2 | (ea)(ag)(gf) | %23
 e2 z2 z2 | d2 fe d2 | efgfge | (3fed Te4 | d2 z2 z2 :| %28
V:2
 !fermata!F2 AG F2 | c2 z2 z2 | edegfe | d2 AA F2 | F>DF>D F2 | G>EG>E G2 | F>DF>D F2 | BAAGGF | %8
 F2 dA F2 | cdedec | d2 A2 A2 | F2 z2 z2 :: FG A2 A2 | AGGF G2 | FG A2 A2 | AG G2 z2 | ^GA B2 B2 | %17
 BAA^G A2 | ^GA B2 B2 | BA A2 z2 | Affeed | eddA A2 | Affeed | A2 z2 z2 | F2 dA F2 | cdedec | %26
 d2 A2 A2 | F2 z2 z2 :| %28

